tools/download-figma-icons/icons/solid/life.svg

<svg width="24" height="24" viewBox="0 0 24 24" fill="none" xmlns="http://www.w3.org/2000/svg">
<path fill-rule="evenodd" clip-rule="evenodd" d="M1.5 12C1.5 6.21 6.21 1.5 12 1.5C17.79 1.5 22.5 6.21 22.5 12C22.5 17.79 17.79 22.5 12 22.5C6.21 22.5 1.5 17.79 1.5 12ZM0 12C0 18.6165 5.3835 24 12 24C18.6165 24 24 18.6165 24 12C24 5.3835 18.6165 0 12 0C5.3835 0 0 5.3835 0 12ZM14.7828 12.7501L14.9253 12.8101C17.452 13.9276 18.787 15.5551 19.4853 17.0026C19.1695 17.4818 18.8103 17.9176 18.412 18.3226C16.7778 19.9726 14.5045 21.0001 12.0003 21.0001C9.4953 21.0001 7.22205 19.9726 5.5878 18.3226C5.1903 17.9176 4.8303 17.4818 4.51455 17.0026C5.2128 15.5551 6.5478 13.9276 9.07455 12.8101L9.2178 12.7501H9.51405C8.30055 11.9446 7.5003 10.5661 7.5003 9.0001C7.5003 6.5146 9.5148 4.5001 12.0003 4.5001C14.485 4.5001 16.5003 6.5146 16.5003 9.0001C16.5003 10.5661 15.6993 11.9446 14.4858 12.7501H14.7828Z" fill="black"/>
</svg>

<svg width="24" height="24" viewBox="0 0 24 24" fill="none" xmlns="http://www.w3.org/2000/svg"><path fill-rule="evenodd" clip-rule="evenodd" d="M1.5 12C1.5 6.21 6.21 1.5 12 1.5S22.5 6.21 22.5 12 17.79 22.5 12 22.5 1.5 17.79 1.5 12ZM0 12c0 6.616 5.383 12 12 12 6.616 0 12-5.384 12-12 0-6.617-5.384-12-12-12C5.383 0 0 5.383 0 12Zm14.783.75.142.06c2.527 1.118 3.862 2.745 4.56 4.193a8.765 8.765 0 0 1-1.073 1.32A9.008 9.008 0 0 1 12 21a9.009 9.009 0 0 1-6.412-2.677 8.772 8.772 0 0 1-1.073-1.32c.698-1.448 2.033-3.075 4.56-4.193l.143-.06h.296a4.5 4.5 0 1 1 4.972 0h.297Z" fill="currentColor"/></svg>
